X:0933
T:Black Mary.
M:6/8
L:1/8
Q:3/8=100
I: || ||
Z:Jack Campin * www.campin.me.uk * 2009
K:G
D|DGG GFG|AAA ABc |B2G ABc|B2G G2D|DGG GFG|AAA ABc|BAG ABc|B2G G2||
g|edd dgg|dBd d2=f|edd dgg|BBB A2g|edd dgg|Bdd deg|B2G ABc|B2G G2|]

